X: 25
M: 4/4
L: 1/8
K: Bb
"Bb"B,CDE "A/F7"F2Bc | "Gm"defd "D/Bb7"B2BA |\
"Eb"G2B2 "D/Bb"F2B2 | "E/C7"cBAG "F7"F2DC |
"Bb"B,CDE "A/F7"F2Bc | "Gm"defd "Bb"B2"D/Bb7"BA |\
"Eb"G2B2 "F7"AFdc |1 "Bb"B4 "Bb"B2 "A/F7"DC :|2 "Bb"B4 "Bb"B2 "A/F7"de ||
|: "Bb"f2fe "Gm"d2cB | "E/C7"cBAG "F7"F2 DC | "Bb"B,CDE "Gm"F2B2 |
[1 "E/C7"c=Bcd "F7"c2de | "Bb"f2fe "Gm"d2cd | "C7"edcB "D/Bb7"G3F |\
"Eb"G2B2 "F7"AFdc | "Eb"B4 "Bb"B2"A/F7"de :|
[2 "E/C7"c=Bcd "F7"c2DC | "Bb"B,CDE "A/F7"F2Bc | "Gm"defd "Bb"B2"D/Bb7"BA |\
"Eb"G2B2 "F7"AFdc | "Eb"B4 "Bb"B4 |]
for John Drewry's "Boyndie Knot". Jonathan, who ran a well known tailor and kilt-making business in
of using a bit of suitably knotted string when he measured folk up for a new kilt or jacket.


